src/24x24/places/folder-gruvbox-material-yellow-code.svg

<?xml version="1.0" encoding="UTF-8"?>
<svg width="24" height="24" version="1" xmlns="http://www.w3.org/2000/svg">
 <rect x="2" y="9.5" width="20" height="12" rx="1" ry="1" opacity=".2"/>
 <path d="m2 17c0 0.554 0.446 1 1 1h18c0.554 0 1-0.446 1-1v-11c0-0.554-0.446-1-1-1h-9c-1.5 0-2-2-3.5-2h-5.5c-0.554 0-1 0.446-1 1" fill="#b47109"/>
 <rect x="2" y="8.5" width="20" height="12" rx="1" ry="1" opacity=".2"/>
 <rect x="4" y="7" width="16" height="8" rx="1" ry="1" fill="#f9eabf"/>
 <rect x="2" y="9" width="20" height="12" rx="1" ry="1" fill="#d8a657"/>
 <path d="m3 3c-0.554 0-1 0.446-1 1v0.5c0-0.554 0.446-1 1-1h5.5c1.5 0 2 2 3.5 2h9c0.554 0 1 0.446 1 1v-0.5c0-0.554-0.446-1-1-1h-9c-1.5 0-2-2-3.5-2z" fill="#f9eabf" opacity=".1"/>
 <path d="m14 11v1.5l2.25 2-2.25 2v1.5l4-3.4336-4-3.5664zm-1.4277 0.013672-2.0703 7.7266 0.9668 0.25977 2.0703-7.7266-0.9668-0.25977zm-2.5723 0.98633-4 3.5664 4 3.4336v-1.5l-2.25-2 2.25-2v-1.5z" fill="#574833"/>
</svg>

<svg xmlns="http://www.w3.org/2000/svg" width="24" height="24" version="1">
 <rect style="opacity:0.2" width="20" height="12" x="2" y="9.5" rx="1" ry="1"/>
 <path style="fill:#b47109" d="M 2,17 C 2,17.554 2.446,18 3,18 H 21 C 21.554,18 22,17.554 22,17 V 6 C 22,5.446 21.554,5 21,5 H 12 C 10.5,5 10,3 8.5,3 H 3 C 2.446,3 2,3.446 2,4"/>
 <rect style="opacity:0.2" width="20" height="12" x="2" y="8.5" rx="1" ry="1"/>
 <rect style="fill:#f9eabf" width="16" height="8" x="4" y="7" rx="1" ry="1"/>
 <rect style="fill:#d8a657" width="20" height="12" x="2" y="9" rx="1" ry="1"/>
 <path style="opacity:0.1;fill:#f9eabf" d="M 3,3 C 2.446,3 2,3.446 2,4 V 4.5 C 2,3.946 2.446,3.5 3,3.5 H 8.5 C 10,3.5 10.5,5.5 12,5.5 H 21 C 21.554,5.5 22,5.946 22,6.5 V 6 C 22,5.446 21.554,5 21,5 H 12 C 10.5,5 10,3 8.5,3 Z"/>
 <path style="fill:#574833" d="M 14 11 L 14 12.5 L 16.25 14.5 L 14 16.5 L 14 18 L 18 14.566406 L 14 11 z M 12.572266 11.013672 L 10.501953 18.740234 L 11.46875 19 L 13.539062 11.273438 L 12.572266 11.013672 z M 10 12 L 6 15.566406 L 10 19 L 10 17.5 L 7.75 15.5 L 10 13.5 L 10 12 z"/>
</svg>
